material/.icons/material/selection.svg

<svg xmlns="http://www.w3.org/2000/svg" viewBox="0 0 24 24"><path d="M2 4a2 2 0 012-2h3v2H4v3H2V4m20 0v3h-2V4h-3V2h3a2 2 0 012 2m-2 16v-3h2v3a2 2 0 01-2 2h-3v-2h3M2 20v-3h2v3h3v2H4a2 2 0 01-2-2m8-18h4v2h-4V2m0 18h4v2h-4v-2m10-10h2v4h-2v-4M2 10h2v4H2v-4z"/></svg>

<?xml version="1.0" encoding="UTF-8"?><!DOCTYPE svg PUBLIC "-//W3C//DTD SVG 1.1//EN" "http://www.w3.org/Graphics/SVG/1.1/DTD/svg11.dtd"><svg xmlns="http://www.w3.org/2000/svg" xmlns:xlink="http://www.w3.org/1999/xlink" version="1.1" id="mdi-selection" width="24" height="24" viewBox="0 0 24 24"><path d="M2,4C2,2.89 2.9,2 4,2H7V4H4V7H2V4M22,4V7H20V4H17V2H20A2,2 0 0,1 22,4M20,20V17H22V20C22,21.11 21.1,22 20,22H17V20H20M2,20V17H4V20H7V22H4A2,2 0 0,1 2,20M10,2H14V4H10V2M10,20H14V22H10V20M20,10H22V14H20V10M2,10H4V14H2V10Z" /></svg>
